!!!ONB: MCCC : ICS0079_06 : Extracted Monophonic Melody
!!!COM: Saint-Saëns, Camille
!!!OPR: Six Etudes pour piano
!!!OMV: 6
!!!SCT: Op.52
!!!ODT: 1877///
**kern
*staff1
=1
*clefG2
*k[b-e-a-d-g-]
*D-:
*M3/4
8A
8A-
8A-
8A
8A
8G
=2
8A
8G-
8G-
8A
8A
8F-
=3
8A
8D
8D
8A
8A
8D-
=4
12A
12C
12E-
12G-
12A
12c
12e-
12g-
12r
=5
8a
8a-
8a-
8a
8a
8g
=6
8a
8g-
8g-
8a
8a
8f-
=7
8a
8d
8d
8a
8a
8d-
=8
12a
12c
12e-
12g-
12a
12cc
12ee-
12gg-
12r
=9
8aa
8aa-
8aa-
8aa
8aa
8gg
=10
8gg
8aa
8aa
8gg-
8gg-
8aa
=11
8aa
8ff-
8ff-
8aa
8aa
8dd
=12
8dd
8aa
8aa
8dd-
8aa
8cc
=13
12g-
12a-
12g
12a
12a-
12b-
12a
12cc-
12b-
=14
12cc
12cc-
12dd-
12cc
12dd
12dd-
12ee-
12dd
12ff-
=15
12ee-
12ff
12ff-
12gg-
12ff
12gg
12gg-
12aa-
12gg
=16
12aa
12aa-
12bb-
12aa
12ccc-
12bb-
12ccc
12ccc-
12ddd-
=17
12ccc
12ddd
12ddd-
12eee-
12ddd
12fff-
12eee-
12fff
12fff-
=18
12ggg-
12fff
12ggg
12ggg-
12aaa-
12ggg
16aaa
16aaa-
16bbb-
16aaa
=19
16cccc-
16bbb-
16cccc
16cccc-
16dddd-
16cccc
16dddd
16dddd-
16eeee-
16dddd
16ffff
16eeee-
=20
16gggg-
16ffff
16eeee-
16dddd-
16cccc
16bbb-
16aaa-
16ggg-
16fff
16eee-
16ddd-
16ccc
=21
16bb-
16aa-
16gg-
16ff
16ee-
16dd-
16cc
16b-
16a-
16g-
16f
16e-
=22
16d-
16c
16B-
16A-
12G-
12F
12E-
12D-
12C
12BB-
=23
4AA-
8B-
8A-
4r
=24
8b-
8a-
4r
8bb-
8aa-
=25
4r
8bbb-
8aaa-
4r
=26
2.r
=27
4r
8B-
8A-
4r
=28
8b-
8a-
4r
8bb-
8aa-
=29
4r
8bbb-
8aaa-
4r
=30
2.r
=31
16f
16g-
16g
16a-
16ff
16gg-
16gg
16aa-
4fff
=32
4r
4eee-
4ddd-
=33
8.ccc
16bb-[
8bb-]
8aa-
16r
8.gg
=34
*M4/4
4bb-
4r
4aa-
4r
=35
*M3/4
16f
16g-
16g
16a-
16ff
16gg-
16gg
16aa-
4fff
=36
4r
4eee-
4ddd-
=37
8.ddd-
16ccc-[
8ccc-]
8aa
16r
8.aa-
=38
*M4/4
4ccc-
4r
4aa
4r
=39
*M3/4
16g-
16g
16a-
16a
16gg-
16gg
16aa-
16aa
4ggg-
=40
4r
4ggg-
4aa
=41
8.aa
16aa-[
8aa-]
8gg
16r
8.gg-
=42
*M4/4
2gg-
4ff
4r
=43
*M3/4
4r
8ee-
8ff
8ff
8ee-
=44
8gg
8ff
8ff
8gg
8gg
8ff
=45
8ccc
8bb-
8bb-
8ccc
8ccc
8bb-
=46
*M4/4
16bb-
16aa-
16ee-
16cc
16b-
16a-
16e-
16c
4A-
4r
=47
*M3/4
16F
16G-
16G
16A-
16f
16g-
16g
16a-
4fff
=48
4r
4eee-
4ddd-
=49
8.ccc
16bb-[
8bb-]
8aa-
16r
8.gg
=50
*M4/4
2bb-
4aa-
4r
=51
*M3/4
16F
16G-
16G
16A-
16f
16g-
16g
16a-
4fff
=52
4r
4eee-
4ddd-
=53
8.ddd-
16ccc-[
8ccc-]
8aa
16r
8.aa-
=54
*M4/4
2ccc-
4aa
4r
=55
*M3/4
16g-
16g
16a-
16a
16gg-
16gg
16aa-
16aa
4gggg-
=56
4r
4ggg-
4aa
=57
8.aa
16aa-[
8aa-]
8gg
16r
8.gg-
=58
*M4/4
2gg-
4ff
4r
=59
*M3/4
4ee-
8eee-
8fff
8ggg-
8aaa-
=60
8bbb-
8bbb-
8bbb-
8bbb-
8bbb-
8bbb-
=61
4bbb-
16cc
16ee-
32gg-
16aa-
32ccc[
32ccc]
32eee-
16ggg-
16aaa-
16cccc
=62
4dddd-
4r
4r
=63
2.r
=64
8e-
8f
8f
8e-
8ee-
8ff
=65
8ff
8ee-
8eee-
8fff
8fff
8eee-
=66
4eeee-
4eee-
4ee-
=67
2.r
=68
8e-
8f
8f
8e-
8ee-
8ff
=69
8ff
8ee-
8eee-
8fff
8fff
8eee-
=70
4eeee-
4eee-
4ee-
=71
2.r
=72
8a-
8b-
8b-
8a-
8aa-
8bb-
=73
8bb-
8aa-
8aaa-
8bbb-
8bbb-
8aaa-
=74
4aaaa-
4aaa-
4aa-
=75
4r
16ff-
16ee-
16dd-
16a
16f-
16a
16dd-
16ee-
=76
*M4/4
16ff-
16aa
16ddd-
16eee-
16fff-
16aaa
16dddd-
16eeee-
4ffff-
4r
=77
*M3/4
4r
16ffff-
16eeee-
16dddd-
16ggg
16fff-
16eee-
16ddd-
16gg
=78
*M4/4
16ff-
16ee-
16dd-
16g
16f-
16e-
16d-
16G
4E-
4r
=79
*M3/4
4ee-
4r
4r
=80
8e-
8f
8f
8e-
8ee-
8ff
=81
8ff
8ee-
8eee-
8fff
8fff
8eee-
=82
4eeee-
4ee-
4ee-
=83
4eee-
4r
4r
=84
8e-
8f
8f
8e-
8ee-
8ff
=85
8ff
8ee-
8eee-
8fff
8fff
8eee-
=86
4eeee-
4ee-
4ee-
=87
4eee-
4r
4r
=88
8a-
8b-
8b-
8a-
8aa-
8bb-
=89
8bb-
8aa-
8aaa-
8bbb-
8bbb-
8aaa-
=90
4aaaa-
4aa-
4aa-
=91
4r
16ff-
16ee-
16dd-
16a
16f-
16a
16dd-
16ee-
=92
*M4/4
16ff-
16aa
16ddd-
16eee-
16fff-
16aaa
16dddd-
16eeee-
4ffff-
4r
=93
*M3/4
4r
16ffff-
16eeee-
16dddd-
16ggg
16fff-
16eee-
16ddd-
16gg
=94
*M4/4
16ff-
16ee-
16dd-
16g
16f-
16e-
16d-
16G
4A-
4r
=95
*M3/4
8A
8A-
8A-
8A
8A
8G
=96
8A
8G-
8G-
8A
8A
8F-
=97
8A
8D
8D
8A
8A
8D-
=98
12A
12C
12E-
12G-
12A
12c
12e-
12g-
12r
=99
8a
8a-
8a-
8a
8a
8g
=100
8a
8g-
8g-
8a
8a
8f-
=101
8a
8d
8d
8a
8a
8d-
=102
12a
12c
12e-
12g-
12a
12cc
12ee-
12gg-
12r
=103
8aa
8aa-
8aa-
8aa
8aa
8gg
=104
8gg
8aa
8aa
8gg-
8gg-
8aa
=105
8aa
8ff-
8ff-
8aa
8aa
8dd
=106
8dd
8aa
8aa
8dd-
8aa
8cc
=107
8aa
8aa-
8aa-
8a
8a
8a-
=108
8aa
8aa-
8aa-
8a
8a
8a-
=109
8aa
8aa-
8aa-
8a
8a
8a-
=110
8aa
8aa-
8aa-
8a
8a
8a-
=111
16f
16g-
16g
16a-
16ff
16gg-
16gg
16aa-
4fff
=112
4r
4eee-
4ddd-
=113
8.ccc
16bb-[
8bb-]
8aa-
16r
8.gg
=114
*M4/4
4bb-
4r
4aa-
4r
=115
*M3/4
16f
16g-
16g
16a-
16ff
16gg-
16gg
16aa-
4fff
=116
4r
4eee-
4ddd-
=117
8.ddd-
16ccc-[
8ccc-]
8aa
16r
8.aa-
=118
*M4/4
4ccc-
4r
4aa
4r
=119
*M3/4
16g-
16g
16a-
16a
16gg-
16gg
16aa-
16aa
4ggg-
=120
4r
4ggg-
4aa
=121
8.aa
16aa-[
8aa-]
8gg
16r
8.gg-
=122
*M4/4
2gg-
4ff
4r
=123
*M3/4
4r
8ee-
8ff
8ff
8ee-
=124
8gg
8ff
8ff
8gg
8gg
8ff
=125
8ccc
8bb-
8bb-
8ccc
8ccc
8bb-
=126
*M4/4
16bb-
16aa-
16ee-
16cc
16b-
16a-
16e-
16c
4A-
4r
=127
*M3/4
16F
16G-
16G
16A-
16f
16g-
16g
16a-
4fff
=128
4r
4eee-
4ddd-
=129
8.ccc
16bb-[
8bb-]
8aa-
16r
8.gg
=130
*M4/4
2bb-
4aa-
4r
=131
*M3/4
16F
16G-
16G
16A-
16f
16g-
16g
16a-
4fff
=132
4r
4eee-
4ddd-
=133
8.ddd-
16ccc-[
8ccc-]
8aa
16r
8.aa-
=134
*M4/4
2ccc-
4aa
4r
=135
*M3/4
16g-
16g
16a-
16a
16gg-
16gg
16aa-
16aa
4gggg-
=136
4r
4ggg-
4aa
=137
8.aa
16aa-[
8aa-]
8gg
16r
8.gg-
=138
*M4/4
2gg-
4ff
4r
=139
*M3/4
4ee-
8eee-
8fff
8ggg-
8aaa-
=140
8bbb-
8bbb-
8bbb-
8bbb-
8bbb-
8bbb-
=141
4bbb-
16cc
16ee-
32gg-
16aa-
32ccc[
32ccc]
32eee-
16ggg-
16aaa-
16cccc
=142
4dddd-
4r
4r
=143
2.r
=144
8e-
8f
8f
8e-
8ee-
8ff
=145
8ff
8ee-
8eee-
8fff
8fff
8eee-
=146
4eeee-
4eee-
4ee-
=147
2.r
=148
8e-
8f
8f
8e-
8ee-
8ff
=149
8ff
8ee-
8eee-
8fff
8fff
8eee-
=150
4eeee-
4eee-
4ee-
=151
2.r
=152
8a-
8b-
8b-
8a-
8aa-
8bb-
=153
8bb-
8aa-
8aaa-
8bbb-
8bbb-
8aaa-
=154
4aaaa-
4aaa-
4aa-
=155
4r
16ff-
16ee-
16dd-
16a
16f-
16a
16dd-
16ee-
=156
*M4/4
16ff-
16aa
16ddd-
16eee-
16fff-
16aaa
16dddd-
16eeee-
4ffff-
4r
=157
*M3/4
4r
16ffff-
16eeee-
16dddd-
16ggg
16fff-
16eee-
16ddd-
16gg
=158
*M4/4
16ff-
16ee-
16dd-
16g
16f-
16e-
16d-
16G
4E-
4r
=159
*M3/4
4ee-
4r
4r
=160
8e-
8f
8f
8e-
8ee-
8ff
=161
8ff
8ee-
8eee-
8fff
8fff
8eee-
=162
4eeee-
4ee-
4ee-
=163
4eee-
4r
4r
=164
8e-
8f
8f
8e-
8ee-
8ff
=165
8ff
8ee-
8eee-
8fff
8fff
8eee-
=166
4eeee-
4ee-
4ee-
=167
4eee-
4r
4r
=168
8a-
8b-
8b-
8a-
8aa-
8bb-
=169
8bb-
8aa-
8aaa-
8bbb-
8bbb-
8aaa-
=170
4aaaa-
4aa-
4aa-
=171
4r
16ff-
16ee-
16dd-
16a
16f-
16a
16dd-
16ee-
=172
*M4/4
16ff-
16aa
16ddd-
16eee-
16fff-
16aaa
16dddd-
16eeee-
4ffff-
4r
=173
*M3/4
4r
16ffff-
16eeee-
16dddd-
16ggg
16fff-
16eee-
16ddd-
16gg
=174
*M4/4
16ff-
16ee-
16dd-
16g
16f-
16e-
16d-
16G
4A-
4r
=175
*M3/4
8A
8A-
8A-
8A
8A
8G
=176
8A
8G-
8G-
8A
8A
8F-
=177
8A
8D
8D
8A
8A
8D-
=178
12A
12C
12E-
12G-
12A
12c
12e-
12g-
12r
=179
8a
8a-
8a-
8a
8a
8g
=180
8a
8g-
8g-
8a
8a
8f-
=181
8a
8d
8d
8a
8a
8d-
=182
12a
12c
12e-
12g-
12a
12cc
12ee-
12gg-
12r
=183
8aa
8aa-
8aa-
8aa
8aa
8gg
=184
8gg
8aa
8aa
8gg-
8gg-
8aa
=185
8aa
8ff-
8ff-
8aa
8aa
8dd
=186
8dd
8aa
8aa
8dd-
8aa
8cc
=187
8aa
8aa-
8aa-
8a
8a
8a-
=188
8aa
8aa-
8aa-
8a
8a
8a-
=189
8aa
8aa-
8aa-
8a
8a
8a-
=190
8aa
8aa-
8aa-
8a
8a
8a-
=191
8aa
8aa-
8aa-
8aa
8aa
8gg-
=192
8aa
8ff-
8ff-
8aa
8aa
8ee-
=193
8aa
8dd-
8dd-
8aa
8aa
8cc-
=194
8aa-
8a
8a
8ff-
8ff-
8a-
=195
8dd-
8a-
8a-
8dd-
8dd-
8g-
=196
8a
8f-
8f-
8a
8a
8e-
=197
8g-
8d-
8d-
8g
8g
8c-
=198
12a-
12c-
12f-
12a-
12cc-
12ff-
12aa-
12ccc-
12fff-
=199
8aaa
8aaa-
8aaa-
8aaa
8aaa
8ggg-
=200
8aaa
8fff-
8fff-
8aaa
8aaa
8eee-
=201
8aaa
8ddd-
8ddd-
8aaa
8aaa
8ccc-
=202
8aaa-
8aa
8aa
8fff-
8fff-
8aa-
=203
8ddd-
8aa-
8aa-
8ddd-
8ddd-
8gg-
=204
8aa
8ff-
8ff-
8aa
8aa
8ee-
=205
8gg-
8dd-
8dd-
8gg
8gg
8cc-
=206
12aa-
12ee-
12cc
12a-
12e-
12c
4A-
=207
8aa
8aa-
8aa-
8aa
8aa
8gg-
=208
8aa
8ff-
8ff-
8aa
8aa
8ee-
=209
8aa
8dd-
8dd-
8aa
8aa
8cc-
=210
8aa-
8a
8a
8ff-
8ff-
8a-
=211
8dd-
8a-
8a-
8dd-
8dd-
8g-
=212
8a
8f-
8f-
8a
8a
8e-
=213
8g-
8d-
8d-
8g
8g
8c-
=214
12a-
12c-
12f-
12a-
12cc-
12ff-
12aa-
12ccc-
12fff-
=215
8aaa
8aaa-
8aaa-
8aaa
8aaa
8ggg-
=216
8aaa
8fff-
8fff-
8aaa
8aaa
8eee-
=217
8aaa
8ddd-
8ddd-
8aaa
8aaa
8ccc-
=218
8aaa-
8aa
8aa
8fff-
8fff-
8aa-
=219
8ddd-
8aa-
8aa-
8ddd-
8ddd-
8gg-
=220
8aa
8ff-
8ff-
8aa
8aa
8ee-
=221
8gg-
8dd-
8dd-
8gg
8gg
8cc-
=222
12aa-
12ee-
12cc
12a-
12e-
12c
4A-
=223
8aa
8aa-
8aa-
8aa
8aa
8gg-
=224
8aa
8ff-
8ff-
8aa
8aa
8ee-
=225
8aa
8dd-
12cc-
12ee-
12gg-
16aa
16ccc-
16eee-
16ggg-
=226
20aaa
20cccc
20eeee-
20aaaa-
20gggg-
20eeee-
20cccc
20aaa
20ggg-
20eee-
20ccc
20aa
20gg-
20ee-
20cc
=227
8aa
8aa-
8aa-
8aa
8aa
8gg-
=228
8aa
8ff-
8ff-
8aa
8aa
8ee-
=229
8aa
8dd-
12cc
12ee-
12gg-
16aa
16ccc
16eee-
16ggg-
=230
20aaa
20cccc
20eeee-
20aaaa-
20gggg-
20eeee-
20cccc
20aaa
20ggg-
20eee-
20ccc
20aa
20gg-
20ee-
20cc
=231
8gg
8gg-
8gg-
8gg
8gg
8ff-
=232
8gg
8dd
8dd
8gg
8gg
8cc
=233
8gg
8cc-
8cc-
8gg
8gg
8b-
=234
8gg-
8a
8a
8dd
8dd
8g-
=235
8cc-
8g-
8g-
8cc-
8cc-
8f-
=236
8b-
8f-
8f-
8b-
8b-
8d
=237
8a
8d
8d
8a
8a
8d-
=238
*M4/4
4d
4r
2r
=239
*M3/4
4d
4d
8r
8d
=240
4d
8r
8d
4d
=241
8r
8d
4d
8r
8d
=242
4d
4d
4d
=243
4d
12C-
12C
12D
12E
12F
12G
=244
12B
12c
12d
12e
12f
12g
12b
12cc
12dd
=245
12ee
12ff
12gg
12bb
12ccc
12ddd
12eee
12fff
12ggg
=246
*M4/4
8bbb
8cccc
8dddd
8eeee
4ffff
4r
=247
*M3/4
4gg
4G
8r
8G
=248
4G
8r
8G
4G
=249
8r
8G
4G
8r
8G
=250
4G
4G
4G
=251
4A-
12AA-
12BB-
12C-
12D-
12E-
12F-
=252
12A-
12B-
12c-
12d-
12e-
12f-
12a-
12b-
12cc-
=253
12dd-
12ee-
12ff-
12aa-
12bb-
12ccc-
12ddd-
12eee-
12fff-
=254
*M4/4
8eee-
8aaa-
8cccc-
8eeee-
4aaaa-
4r
=255
*M3/4
4aa-
8a-
8g-
8g-
8a-
=256
8a-
8f-
8f-
8a-
8a-
8e-
=257
8e-
8a-
8a-
8d-
8d-
8a-
=258
8a-
8c-
8a-
8cc-
4aaa-
=259
4ccc-
8cc-
8g-
8g-
8cc-
=260
8cc-
8f-
8f-
8cc-
8cc-
8e-
=261
8e-
8cc-
8cc-
8d-
8d-
8cc-
=262
8cc-
8c-
8cc-
8aa-
4cccc-
=263
4ffff-
8fff-
8eee-
8eee-
8fff-
=264
8fff-
8ddd
8ddd
8fff-
8fff-
8ddd-
=265
8ddd-
8fff-
8fff-
8ccc
8ccc
8fff-
=266
8fff-
8ccc-
8ccc-
8fff-
8fff-
8bb-
=267
8bb-
8fff-
8fff-
8aa
8fff-
8aa-
=268
8fff-
8gg
8fff-
8gg-
8fff-
8ff
=269
8fff-
8ff-
8aa-
8ccc-
8fff-
8aaa-
=270
8cccc-
8eeee-
8ffff-
8gggg-
4aaaa-
=271
4aa-
12gg-
12aa-
12gg
12aa
12aa-
12bb-
=272
12aa
12ccc-
12bb-
12ccc
12ccc-
12ddd-
12ccc
12ddd
12ddd-
=273
12eee-
12ddd
12fff-
12eee-
12fff
12fff-
12ggg-
12fff
12ggg
=274
12ggg-
12aaa-
12ggg
12aaa
12aaa-
12bbb-
12aaa
12cccc-
12bbb-
=275
12ccc
12ccc-
12ddd-
12ccc
12ddd
12ddd-
16eee-
16ddd
16fff
16eee-
=276
16gggg-
16ffff
16eeee-
16dddd-
16cccc
16bbb-
16aaa-
16ggg-
16fff
16eee-
16ddd-
16ccc
=277
16bb-
16aa-
16gg-
16ff
16ee-
16dd-
16cc
16b-
16a-
16g-
16f
16e-
=278
16d-
16c
16B-
16A-
16G-
16F
16E-
16D-
16C
16BB-
16AA-
16GG-
=279
*M5/16
16FF
16EE-
16DD-
16CC
16BBB-
=280
*M3/4
4AAA-
8BB-
8AA-
4r
=281
8B-
8A-
4r
8b-
8a-
=282
4r
8bb-
8aa-
4r
=283
*M6/4
8bbb-
4.aaa-
4aaaa-
2.r
=284
*M3/4
16f
16g-
16g
16a-
16ff
16gg-
16gg
16aa-
4ffff
=285
4r
4eeee-
4dddd-
=286
8.cccc
16bbb-[
8bbb-]
8aaa-
16r
8.ggg
=287
*M4/4
4bbb-
4r
4aaa-
4r
=288
*M3/4
16f
16g-
16g
16a-
16ff
16gg-
16gg
16aa-
4ffff
=289
4r
4eeee-
4dddd-
=290
8.dddd-
16cccc-[
8cccc-]
8aaa
16r
8.aaa-
=291
*M4/4
4cccc-
4r
4aaa
4r
=292
*M3/4
16g-
16g
16a-
16a
16gg-
16gg
16aa-
16aa
4gggg-
=293
4r
4gggg-
4aaa
=294
8.aaa
16aaa-[
8aaa-]
8ggg
16r
8.ggg-
=295
*M4/4
4ggg-
4r
4fff
4r
=296
*M3/4
4r
8eee-
8fff
8fff
8eee-
=297
8ggg
8fff
8fff
8ggg
8ggg
8fff
=298
8cccc
8bbb-
8bbb-
8cccc
8cccc
8bbb-
=299
*M4/4
16bbb-
16aaa-
16eee-
16ccc
16bb-
16aa-
16ee-
16cc
4a-
4r
=300
*M3/4
16F
16G-
16G
16A-
16f
16g-
16g
16a-
4fff
=301
4r
4eee-
4ddd-
=302
8.ccc
16bb-[
8bb-]
8aa-
16r
8.gg
=303
*M4/4
4bb-
4r
4aa-
4r
=304
*M3/4
16F
16G-
16G
16A-
16f
16g-
16g
16a-
4fff
=305
4r
4eee-
4ddd-
=306
8.ddd-
16ccc-[
8ccc-]
8aa
16r
8.aa-
=307
*M4/4
4ccc-
4r
4aa
4r
=308
*M3/4
16g-
16g
16a-
16a
16gg-
16gg
16aa-
16aa
4gggg-
=309
4r
4ggg-
4aa
=310
8.aa
16aa-[
8aa-]
8gg
16r
8.gg-
=311
*M4/4
2gg-
4ff
4r
=312
*M3/4
4ee-
8eee-
8fff
8ggg-
8aaa-
=313
8bbb-
8bbb-
8bbb-
8bbb-
8bbb-
8bbb-
=314
4bbb-
4r
4r
=315
4r
4r
8ee-
8ff
=316
8ff
8ee-
8eee-
8fff
8ggg
8aaa-
=317
8bbb-
8bbb-
8bbb-
8bbb-
8bbb-
8bbb-
=318
4bbb-
4r
4r
=319
8e-
8f
8f
8e-
8ee-
8ff
=320
8ff
8ee-
8ddd-
8ccc
8ccc-
8bb-
=321
8aa
8aa-
8gg
8gg-
8ff
8ff-
=322
8ee-
8dd
8ddd-
8ddd-
8ddd-
8ddd-
=323
8ddd-
8ddd-
8ddd-
8ddd-
8ddd-
8ddd-
=324
8ddd-
8ddd-
8ddd-
8ccc
8ccc-
8bb-
=325
8aa
8aa-
8gg
8gg-
8ff
8ff-
=326
8ee-
8dd-
8cc
8cc-
8b-
8a
=327
8a-
8g
8g-
8f
8f-
8e-
=328
4d
4A
4d
=329
4dd
4a
4dd
=330
4ddd
4aa
4ddd
=331
4dddd
4aaa
4dddd
=332
4.aaaa
4.dddd
=333
4.aaa
4.ddd
=334
4.aa
4.dd
=335
4.a
4.d
=336
2.r
=337
4r
16g-
16a
16dd
16aa
4r
=338
4r
16r
16g-
16a-
16dd-
16ee-
8.aa-
=339
4r
16r
16g-
16a-
16cc
16ee-
8.aa-
=340
*M5/4
*M3/4
2.r
=341
2.r
=342
2.r
=343
2.r
=344
4r
8ffff
8eeee-
8dddd-
8eeee-
=345
8dddd-
8aaa-
8fff
8aaa-
8fff
8eee-
=346
8ddd-
8eee-
8ddd-
8aa-
8ff
8aa-
=347
8ff
8ee-
8dd-
8ee-
8dd-
8f
=348
8g-
8g
8a-
8a
8b-
8cc-
=349
8cc
8dd-
8dd
8ee-
8ff-
8ff
=350
8gg-
8aa
8gg-
8aa
8gg-
8aa
=351
8aa-
8ccc
8eee-
8aaa-
8cccc
8eeee-
=352
4r
8ffff
8eeee-
8dddd-
8eeee-
=353
8dddd-
8aaa-
8fff
8aaa-
8fff
8eee-
=354
8ddd-
8eee-
8ddd-
8aa-
8ff
8aa-
=355
8ff
8ee-
8dd-
8ee-
8dd-
8f
=356
8g-
8g
8a-
8a
8b-
8cc-
=357
8cc
8dd-
8dd
8ee-
8ff-
8ff
=358
8gg-
8aa
8gg-
8aa
8gg-
8aa
=359
8aa-
8ccc
8eee-
8aaa-
8cccc
8eeee-
=360
4ffff
4cc
4ff
=361
4r
4ff
4aa
=362
4r
4aa
4ccc
=363
4r
4ccc
4fff
=364
4r
4cccc-
4aaa-
=365
4r
4fff-
4ccc-
=366
4r
4aa-
4ff-
=367
2.r
=368
4b-
4b-
4ee-
=369
4r
4ee-
4gg
=370
4r
4gg
4bb-
=371
4r
4bb-
4eee-
=372
4r
4aaa
4ggg-
=373
4r
4ddd
4aa
=374
4r
4gg-
4dd
=375
2.r
=376
4a-
8ffff
8eeee-
8dddd-
8eeee-
=377
8dddd-
8aaa-
8fff
8aaa-
8fff
8eee-
=378
8ddd
8eee-
8ddd
8aa-
8ff
8aa-
=379
8ff
8ee-
8dd
8ee-
8dd
8a-
=380
8g-
8b-
8ee-
8ff
8gg-
8bb-
=381
8gg-
8bb-
8eee-
8ggg-
8bbb-
8eeee-
=382
8r
8gggg
8ffff-
8dddd-
8ggg
8fff-
=383
8r
8aaaa-
8eeee-
8cccc
8aaa-
8eee-
=384
4r
8ffff
8eeee-
8dddd-
8eeee-
=385
8dddd-
8aaa-
8fff
8aaa-
8fff
8eee-
=386
8ddd
8eee-
8ddd
8aa-
8ff
8aa-
=387
8ff
8ee-
8dd
8ee-
8dd
8a-
=388
8g-
8a
8dd
8ff-
8gg-
8aa
=389
8gg-
8aa
8ddd
8ggg-
8aaa
8dddd
=390
8r
8fff-
8ggg
8dddd-
8ffff-
8gggg
=391
8r
8ee-
8aa-
8ccc
8eee-
8aaa-
=392
4r
8d-
8c
8c
8d-
=393
8d-
8c-
8c-
8d-
8d-
8B-
=394
8B-
8d-
8d-
8A
8d-
8A-
=395
4r
16AA
16D
16G-
16A
16d
16g-
16a
16dd
=396
*M1/8
16gg-
16aa
=397
*M3/4
4ddd-
8dd-
8cc
8cc
8dd-
=398
8dd-
8cc-
8cc-
8dd-
8dd-
8b-
=399
8b-
8dd-
8dd-
8a
8dd-
8a-
=400
4r
16A
16d
16g-
16a
16dd
16gg-
16aa
16ddd
=401
*M1/8
16ggg-
16aaa
=402
*M3/4
4dddd-
8dddd-
8cccc
8cccc
8dddd-
=403
8ddd-
8ccc-
8ddd-
8bb-
8ddd-
8aa
=404
8ddd-
8aa-
8gg
8gg-
8gg-
8gg
=405
8gg
8ff
8gg
8ff-
8gg
8ee-
=406
8gg
8dd
8dd-
8cc
8cc
8dd-
=407
8dd-
8cc-
8dd-
8b-
8dd-
8a
=408
8dd-
8a-
8g
8g-
8g-
8g
=409
8g
8f
8g
8f-
8g
8e-
=410
8g
8d
8d-
8c
8c
8d-
=411
8d-
8c-
8d-
8B-
8d-
8A
=412
8d-
8A-
8d-
8G
8d-
8G-
=413
8d-
8F
8d-
8F-
8d-
8E-
=414
4D-
4ff
4fff
=415
4ff
4fff
4ffff
=416
4D-
4ff
4fff
=417
4ff
4fff
4ffff
=418
4D-
4ff
4fff
=419
4ff
4fff
4ffff
=420
12FF
12AA-
12D-
12F
12A-
12d-
12f
12a-
12dd-
=421
12ff
12aa-
12ddd-
12fff
12aaa-
12dddd-
4ffff
=422
4aaaa-
4r
4r
=423
4aa-
4r
4r
=424
4ddd-
4r
4r
==
*-
